svg/UnitedNations-Flags/flag-tl.svg

<?xml version="1.0" encoding="UTF-8" standalone="no"?>
<svg height="256" id="svg2863" inkscape:output_extension="org.inkscape.output.svg.inkscape" inkscape:version="0.46" sodipodi:docname="Flag_of_East_Timor.svg" sodipodi:version="0.32" version="1.0" width="256" xmlns="http://www.w3.org/2000/svg" xmlns:cc="http://creativecommons.org/ns#" xmlns:dc="http://purl.org/dc/elements/1.1/" xmlns:inkscape="http://www.inkscape.org/namespaces/inkscape" xmlns:rdf="http://www.w3.org/1999/02/22-rdf-syntax-ns#" xmlns:sodipodi="http://sodipodi.sourceforge.net/DTD/sodipodi-0.dtd" xmlns:svg="http://www.w3.org/2000/svg">
  <metadata>
    <rdf:RDF xmlns:cc="http://web.resource.org/cc/" xmlns:dc="http://purl.org/dc/elements/1.1/" xmlns:rdf="http://www.w3.org/1999/02/22-rdf-syntax-ns#">
      <cc:Work rdf:about="">
        <dc:title></dc:title>
        <dc:description></dc:description>
        <dc:subject>
          <rdf:Bag>
            <rdf:li>unsorted</rdf:li>
          </rdf:Bag>
        </dc:subject>
        <dc:publisher>
          <cc:Agent rdf:about="http://www.openclipart.org/">
            <dc:title>Open Clip Art Library, Source: Wikimedia Commons, Source: Wikimedia Commons, Source: Wikimedia Commons, Source: Wikimedia Commons</dc:title>
          </cc:Agent>
        </dc:publisher>
        <dc:creator>
          <cc:Agent>
            <dc:title></dc:title>
          </cc:Agent>
        </dc:creator>
        <dc:rights>
          <cc:Agent>
            <dc:title></dc:title>
          </cc:Agent>
        </dc:rights>
        <dc:date></dc:date>
        <dc:format>image/svg+xml</dc:format>
        <dc:type rdf:resource="http://purl.org/dc/dcmitype/StillImage"/>
        <cc:license rdf:resource="http://en.wikipedia.org/wiki/Public_domain"/>
        <dc:language>en</dc:language>
      </cc:Work>
    </rdf:RDF>
  </metadata>
  <defs id="defs2874">
    <inkscape:perspective id="perspective2878" inkscape:persp3d-origin="600 : 200 : 1" inkscape:vp_x="0 : 300 : 1" inkscape:vp_y="0 : 1000 : 0" inkscape:vp_z="1200 : 300 : 1" sodipodi:type="inkscape:persp3d"/>
  </defs>
  <sodipodi:namedview bordercolor="#666666" borderopacity="1.0" gridtolerance="10.0" guidetolerance="10.0" id="base" inkscape:current-layer="svg2863" inkscape:cx="600" inkscape:cy="300" inkscape:pageopacity="0.0" inkscape:pageshadow="2" inkscape:window-height="821" inkscape:window-width="1040" inkscape:window-x="86" inkscape:window-y="134" inkscape:zoom="0.46583333" objecttolerance="10.0" pagecolor="#ffffff" showgrid="false"/>
  <rect height="128" id="rect2865" style="fill:#dc241f" width="256" x="0" y="64"/>
  <polygon id="polygon2867" points="0,0 0,600 600,300 0,0 " style="fill:#ffc726" transform="matrix(0.2133333,0,0,0.2133333,0,64)"/>
  <polygon id="polygon2869" points="0,0 0,600 400,300 0,0 " style="fill:#000000" transform="matrix(0.2133333,0,0,0.2133333,0,64)"/>
  <path d="M 47.576233,111.59834 L 40.469293,125.93376 L 52.37703,136.63309 L 36.03213,134.83935 L 28.866594,149.14879 L 25.87184,133.70483 L 9.5355857,131.84937 L 24.029621,124.09819 L 21.098779,108.64192 L 33.051334,119.29537 L 47.576233,111.59834 z" id="path2871" style="fill:#ffffff"/>
</svg>

<svg xmlns="http://www.w3.org/2000/svg" viewBox="0 0 256 256"><path fill="#dc241f" d="m0 64h256v128h-256z"/><g transform="matrix(.21333 0 0 .21333 0 64)"><path fill="#ffc726" d="M0 0 0 600 600 300 0 0z"/><path d="M0 0 0 600 400 300 0 0z"/></g><path d="m47.576 111.6l-7.107 14.335 11.908 10.699-16.345-1.794-7.166 14.309-2.995-15.444-16.336-1.855 14.494-7.751-2.931-15.456 11.953 10.653 14.525-7.697" fill="#fff"/></svg>
